frontend/public/images/olho_aberto.svg

<?xml version="1.0" encoding="utf-8"?>
<!-- Uploaded to: SVG Repo, www.svgrepo.com, Generator: SVG Repo Mixer Tools -->
<svg width="800px" height="800px" viewBox="0 0 24 24" fill="none" xmlns="http://www.w3.org/2000/svg">
<g clip-path="url(#clip0_1237_357558)">
<path fill-rule="evenodd" clip-rule="evenodd" d="M11.9999 7.5C9.5146 7.5 7.49988 9.51472 7.49988 12C7.49988 14.4853 9.5146 16.5 11.9999 16.5C14.4852 16.5 16.4999 14.4853 16.4999 12C16.4999 9.51472 14.4852 7.5 11.9999 7.5ZM9.49988 12C9.49988 10.6193 10.6192 9.5 11.9999 9.5C13.3806 9.5 14.4999 10.6193 14.4999 12C14.4999 13.3807 13.3806 14.5 11.9999 14.5C10.6192 14.5 9.49988 13.3807 9.49988 12Z" fill="#000000"/>
<path fill-rule="evenodd" clip-rule="evenodd" d="M11.9998 2.5C7.80917 2.5 4.80627 4.84327 2.90279 7.0685C1.94654 8.18638 1.24425 9.29981 0.780854 10.1325C0.548544 10.55 0.374643 10.8998 0.257542 11.1484C0.198955 11.2727 0.154474 11.372 0.123909 11.4419C0.108623 11.4769 0.0968071 11.5046 0.0884377 11.5245L0.0784618 11.5483L0.0754044 11.5557L0.0743572 11.5583L0.0739539 11.5593L-0.0742188 11.9233L0.0645713 12.291L0.0649583 12.292L0.0659593 12.2947L0.0688703 12.3023L0.0783443 12.3266C0.0862884 12.3469 0.0975008 12.3751 0.112024 12.4107C0.141064 12.482 0.183381 12.583 0.23932 12.7095C0.351123 12.9623 0.517779 13.318 0.742125 13.7424C1.1896 14.5889 1.87305 15.7209 2.8177 16.8577C4.70134 19.1243 7.7068 21.5 11.9998 21.5C16.2929 21.5 19.2983 19.1243 21.182 16.8577C22.1266 15.7209 22.8101 14.5889 23.2576 13.7424C23.4819 13.318 23.6486 12.9623 23.7604 12.7095C23.8163 12.583 23.8586 12.482 23.8877 12.4107C23.9022 12.3751 23.9134 12.3469 23.9213 12.3266L23.9308 12.3023L23.9337 12.2947L23.9347 12.292L23.9351 12.291L24.0739 11.9233L23.9257 11.5593L23.9243 11.5557L23.9212 11.5483L23.9112 11.5245C23.9029 11.5046 23.8911 11.4769 23.8758 11.4419C23.8452 11.372 23.8007 11.2727 23.7421 11.1484C23.625 10.8998 23.4511 10.55 23.2188 10.1325C22.7554 9.29981 22.0531 8.18638 21.0969 7.0685C19.1934 4.84327 16.1905 2.5 11.9998 2.5ZM22.9998 11.9371C23.9354 12.2902 23.9351 12.291 23.9351 12.291L22.9998 11.9371ZM23.9257 11.5593C23.9257 11.5593 23.926 11.5601 22.9998 11.9371L23.9257 11.5593ZM0.99984 11.9371C0.0736306 11.5601 0.0739539 11.5593 0.0739539 11.5593L0.99984 11.9371ZM0.0645713 12.291C0.0645713 12.291 0.0642597 12.2902 0.99984 11.9371L0.0645713 12.291ZM2.51028 12.8077C2.32519 12.4576 2.18591 12.1632 2.09065 11.9504C2.19077 11.7404 2.33642 11.4501 2.52847 11.105C2.94543 10.3558 3.57456 9.35995 4.4226 8.36857C6.12769 6.37527 8.62479 4.5 11.9998 4.5C15.3749 4.5 17.872 6.37527 19.5771 8.36857C20.4251 9.35995 21.0542 10.3558 21.4712 11.105C21.6633 11.4501 21.8089 11.7404 21.909 11.9504C21.8138 12.1632 21.6745 12.4576 21.4894 12.8077C21.0881 13.5667 20.4781 14.5754 19.6438 15.5794C17.9694 17.5942 15.4749 19.5 11.9998 19.5C8.52477 19.5 6.03023 17.5942 4.3559 15.5794C3.52156 14.5754 2.91153 13.5667 2.51028 12.8077Z" fill="#000000"/>
</g>
<defs>
<clipPath id="clip0_1237_357558">
<rect width="24" height="24" fill="white"/>
</clipPath>
</defs>
</svg>

<svg xmlns="http://www.w3.org/2000/svg" width="800" height="800" fill="none" viewBox="0 0 24 24"><g fill="#000" fill-rule="evenodd" clip-path="url(#a)" clip-rule="evenodd"><path d="M12 7.5a4.5 4.5 0 1 0 0 9 4.5 4.5 0 0 0 0-9M9.5 12a2.5 2.5 0 1 1 5 0 2.5 2.5 0 0 1-5 0"/><path d="M12 2.5c-4.19 0-7.194 2.343-9.097 4.569a19 19 0 0 0-2.645 4.08 12 12 0 0 0-.17.376l-.01.023-.003.008v.002l-.001.001-.148.364.139.368v.001l.001.003.003.007.01.025.033.084q.044.107.127.299a18.3 18.3 0 0 0 2.578 4.148C4.702 19.124 7.708 21.5 12 21.5s7.298-2.376 9.182-4.642a18.3 18.3 0 0 0 2.578-4.148 11 11 0 0 0 .161-.383l.01-.025.003-.007v-.003l.001-.001.139-.368-.148-.364-.002-.003-.003-.008-.01-.024-.035-.082q-.045-.107-.134-.294a19 19 0 0 0-2.645-4.08C19.193 4.844 16.19 2.5 12 2.5m11 9.437.935.354zm.926-.378-.926.378zM1 11.937l-.926-.378zm-.935.354L1 11.937zm2.445.517c-.185-.35-.324-.645-.42-.858a17 17 0 0 1 2.332-3.582C6.129 6.376 8.626 4.5 12 4.5s5.872 1.875 7.577 3.869a17 17 0 0 1 2.332 3.581 16.3 16.3 0 0 1-2.265 3.629C17.969 17.594 15.474 19.5 12 19.5s-5.97-1.906-7.644-3.92a16.3 16.3 0 0 1-1.846-2.772"/></g><defs><clipPath id="a"><path fill="#fff" d="M0 0h24v24H0z"/></clipPath></defs></svg>
